!!!COM: Palestrina, Giovanni Perluigi da
!!!OPR: Missa De Beata Marie Virginis (III)
!!!OMD: Gloria
!!!OTL: Benedicimus te
**kern	**kern	**kern	**kern	**kern
*Ibass	*Itenor	*Itenor	*Icalto	*Icant
!Bassus	!Tenor 2	!Tenor 1	!Altus	!Cantus
*clefF4	*clefGv2	*clefGv2	*clefG2	*clefG2
*k[]	*k[]	*k[]	*k[]	*k[]
*G:mix	*G:mix	*G:mix	*G:mix	*G:mix
*M4/2	*M4/2	*M4/2	*M4/2	*M4/2
=12	=12	=12	=12	=12
0r	0r	0r	1r	1.dd
.	.	.	[1g	.
.	.	.	.	2cc
=13	=13	=13	=13	=13
0r	0r	0r	2g]	2b
.	.	.	2f	2a
.	.	.	2e	4cc
.	.	.	.	4b
.	.	.	2d	4b
.	.	.	.	8a
.	.	.	.	8g
=14	=14	=14	=14	=14
1r	1.d	0r	1f#	1a
[1G	.	.	2.g	2b
.	2c	.	.	2cc
.	.	.	8f	.
.	.	.	8e	.
=15	=15	=15	=15	=15
2G]	2B	0r	1d	1dd
2F	2A	.	.	.
2E	4c	.	1r	2r
.	4B	.	.	.
2D	4B	.	.	[2dd
.	8A	.	.	.
.	8G	.	.	.
=16	=16	=16	=16	=16
1F	1A	1r	2r	2dd]
.	.	.	1a	2cc
1G	1B	[1d	.	1b
.	.	.	2g	.
=17	=17	=17	=17	=17
1r	2r	2d]	2f	2a
.	1g	2c	2e	2cc
2r	.	2B	2g	2.dd
2D	2f	2A	2a	.
.	.	.	.	8cc
.	.	.	.	8dd
=18	=18	=18	=18	=18
1A	2e	1c	2r	4ee
.	.	.	.	4ff
.	2e	.	1a	2.ee
2D	1f	1d	.	.
.	.	.	.	4dd
2D	.	.	2a	[2dd
=19	=19	=19	=19	=19
0A	1e	0e	2.a	2dd]
.	.	.	.	4cc#
.	.	.	4a	4b
.	1A	.	1a	1cc#
=20	=20	=20	=20	=20
[0D	[0A	[0d	[0f#	[0dd
=21	=21	=21	=21	=21
0D]	0A]	0d]	0f#]	0dd]
*-	*-	*-	*-	*-
!!!CDT: 1525/^1526/-1594/2/2
!!!OCY: Italia
!!!AGN: Mass (Paraphrase)
!!!AST: renaissance, vocal
!!!ASW: Gregorian Mass
!!!PWK: Masses, Book Mantuan I
!!!RNB: Cadence finals: D
!!!YOR: Le Opere Complete, v. 18, p. 162
!!!YOO: Rome, Italy: Fratelli Scalera
!!!END: 1992//
!!!EED: John Miller
!!!YEC: Copyright 2000, John Miller
!!!YEN: United States of America
!!!YEM: Rights to all derivative electronic formats reserved.
!!!YEM: Refer to licensing agreement for further details.
!!!YEM: This file must be accompanied by the licensing agreement.
!!!YEM: A copy of the licensing agreement may be found at http://www.music-cog.ohio-state.edu/HumdrumDatabases/Palestrina/license.txt
!!!EMD: converted to Humdrum by Bret Aarden
